X: 45
T:Irish Lassie, The
M:6/8
L:1/8
S:Aird's Selections 1782-97
R:Air
K:G
"Andante cantabile"G/2A/2|B2 A B2 g|dBG A2 B|E2 D EFG|AFD D2 G/2A/2|
B2 A B2 g|^ceg f2 e|f>ed ed^c|d3-d2 d=c|B>cB cA>f|
g3 d2 c|B>GB c2 d|ede gfe|d2 (3e/2f/2g/2 f2 e|d2 c B/2c/2dD|
EcB ADF|G3-G2||

